docs/.gitbook/assets/icon-rotate-clockwise-16@dark.svg

<svg width="32" height="32" viewBox="0 0 16 16" fill="none" xmlns="http://www.w3.org/2000/svg">
<rect x="0" y="0" width="16" height="16" fill="#181c1f"/>
<path fill-rule="evenodd" clip-rule="evenodd" d="M7.19253 1.24828C7.46962 0.9404 7.94384 0.915442 8.25172 1.19254L10.7517 3.44254C10.9098 3.58477 11 3.78739 11 4.00001C11 4.21262 10.9098 4.41525 10.7517 4.55748L8.25172 6.80748C7.94384 7.08457 7.46962 7.05961 7.19253 6.75173C6.91544 6.44385 6.94039 5.96963 7.24828 5.69254L8.29553 4.75001H8C5.46583 4.75001 3.5 6.56198 3.5 9.00001C3.5 11.4853 5.51472 13.5 8 13.5C10.4853 13.5 12.5 11.4853 12.5 9.00001C12.5 8.58579 12.8358 8.25001 13.25 8.25001C13.6642 8.25001 14 8.58579 14 9.00001C14 12.3137 11.3137 15 8 15C4.68629 15 2 12.3137 2 9.00001C2 5.63904 4.73518 3.25001 8 3.25001H8.29553L7.24828 2.30748C6.94039 2.03038 6.91544 1.55617 7.19253 1.24828Z" fill="#fff"/>
</svg>

<svg xmlns="http://www.w3.org/2000/svg" width="32" height="32" fill="none" viewBox="0 0 16 16"><path fill="#181c1f" d="M0 0h16v16H0z"/><path fill="#fff" fill-rule="evenodd" d="M7.193 1.248a.75.75 0 0 1 1.059-.055l2.5 2.25a.75.75 0 0 1 0 1.114l-2.5 2.25a.75.75 0 0 1-1.004-1.114l1.048-.943H8C5.466 4.75 3.5 6.562 3.5 9a4.5 4.5 0 1 0 9 0A.75.75 0 0 1 14 9 6 6 0 0 1 2 9c0-3.361 2.735-5.75 6-5.75h.296l-1.048-.943a.75.75 0 0 1-.055-1.059" clip-rule="evenodd"/></svg>
